mimes/24/audio-x-generic.svg

<?xml version="1.0" encoding="UTF-8" standalone="no"?>
<svg
   id="svg4157"
   height="24"
   width="24"
   version="1.1"
   sodipodi:docname="audio-x-generic.svg"
   inkscape:version="1.1.2 (0a00cf5339, 2022-02-04)"
   xmlns:inkscape="http://www.inkscape.org/namespaces/inkscape"
   xmlns:sodipodi="http://sodipodi.sourceforge.net/DTD/sodipodi-0.dtd"
   xmlns:xlink="http://www.w3.org/1999/xlink"
   xmlns="http://www.w3.org/2000/svg"
   xmlns:svg="http://www.w3.org/2000/svg"
   xmlns:rdf="http://www.w3.org/1999/02/22-rdf-syntax-ns#"
   xmlns:cc="http://creativecommons.org/ns#"
   xmlns:dc="http://purl.org/dc/elements/1.1/">
  <sodipodi:namedview
     id="namedview51"
     pagecolor="#ffffff"
     bordercolor="#666666"
     borderopacity="1.0"
     inkscape:pageshadow="2"
     inkscape:pageopacity="0.0"
     inkscape:pagecheckerboard="0"
     showgrid="false"
     inkscape:zoom="4"
     inkscape:cx="9.125"
     inkscape:cy="36"
     inkscape:window-width="1317"
     inkscape:window-height="893"
     inkscape:window-x="468"
     inkscape:window-y="357"
     inkscape:window-maximized="0"
     inkscape:current-layer="svg4157" />
  <defs
     id="defs4159">
    <linearGradient
       gradientTransform="matrix(0.45945947,0,0,0.45945947,0.9742203,0.9717328)"
       gradientUnits="userSpaceOnUse"
       xlink:href="#linearGradient4095"
       id="linearGradient3233"
       y2="41.414463"
       x2="23.99999"
       y1="6.5493407"
       x1="23.99999" />
    <linearGradient
       id="linearGradient4095">
      <stop
         offset="0"
         style="stop-color:#ffffff;stop-opacity:1"
         id="stop4097" />
      <stop
         offset="0"
         style="stop-color:#ffffff;stop-opacity:0.23529412"
         id="stop4100" />
      <stop
         offset="1"
         style="stop-color:#ffffff;stop-opacity:0.15686275"
         id="stop4102" />
      <stop
         offset="1"
         style="stop-color:#ffffff;stop-opacity:0.39215687"
         id="stop4104" />
    </linearGradient>
    <radialGradient
       gradientTransform="matrix(2.003784,0,0,1.4,27.98813,-17.4)"
       gradientUnits="userSpaceOnUse"
       xlink:href="#linearGradient3688-166-749-9"
       id="radialGradient3082-6"
       fy="43.5"
       fx="4.9929786"
       r="2.5"
       cy="43.5"
       cx="4.9929786" />
    <linearGradient
       id="linearGradient3688-166-749-9">
      <stop
         offset="0"
         style="stop-color:#181818;stop-opacity:1"
         id="stop2883-2" />
      <stop
         offset="1"
         style="stop-color:#181818;stop-opacity:0"
         id="stop2885-2" />
    </linearGradient>
    <radialGradient
       gradientTransform="matrix(2.003784,0,0,1.4,-20.01187,-104.4)"
       gradientUnits="userSpaceOnUse"
       xlink:href="#linearGradient3688-464-309-7-6"
       id="radialGradient3084-4"
       fy="43.5"
       fx="4.9929786"
       r="2.5"
       cy="43.5"
       cx="4.9929786" />
    <linearGradient
       id="linearGradient3688-464-309-7-6">
      <stop
         offset="0"
         style="stop-color:#181818;stop-opacity:1"
         id="stop2889-75" />
      <stop
         offset="1"
         style="stop-color:#181818;stop-opacity:0"
         id="stop2891-4-9" />
    </linearGradient>
    <linearGradient
       gradientUnits="userSpaceOnUse"
       xlink:href="#linearGradient3702-501-757-1"
       id="linearGradient3086-8"
       y2="39.999443"
       x2="25.058096"
       y1="47.027729"
       x1="25.058096" />
    <linearGradient
       id="linearGradient3702-501-757-1">
      <stop
         offset="0"
         style="stop-color:#181818;stop-opacity:0"
         id="stop2895-2" />
      <stop
         offset="0.5"
         style="stop-color:#181818;stop-opacity:1"
         id="stop2897-89" />
      <stop
         offset="1"
         style="stop-color:#181818;stop-opacity:0"
         id="stop2899-36" />
    </linearGradient>
    <linearGradient
       id="linearGradient909">
      <stop
         id="stop905"
         style="stop-color:#fafafa;stop-opacity:1"
         offset="0" />
      <stop
         id="stop907"
         style="stop-color:#d4d4d4;stop-opacity:1"
         offset="1" />
    </linearGradient>
    <linearGradient
       xlink:href="#linearGradient909"
       id="linearGradient903"
       x1="14.329722"
       y1="37.247574"
       x2="14.329722"
       y2="-5.535521"
       gradientUnits="userSpaceOnUse"
       gradientTransform="matrix(0.69230769,0,0,0.69230769,0.92307623,-23.076924)" />
    <linearGradient
       y2="84.235909"
       x2="17.238106"
       y1="25.439518"
       x1="36.948124"
       gradientTransform="matrix(0.33469959,-0.0946529,0.11219966,0.32923278,-5.7485046,-3.4069578)"
       gradientUnits="userSpaceOnUse"
       id="linearGradient4252"
       xlink:href="#linearGradient4417" />
    <linearGradient
       id="linearGradient4417">
      <stop
         style="stop-color:#ffa154;stop-opacity:1"
         offset="0"
         id="stop4419" />
      <stop
         style="stop-color:#cc3b02;stop-opacity:1"
         offset="1"
         id="stop4421" />
    </linearGradient>
  </defs>
  <metadata
     id="metadata4162">
    <rdf:RDF>
      <cc:Work
         rdf:about="">
        <dc:format>image/svg+xml</dc:format>
        <dc:type
           rdf:resource="http://purl.org/dc/dcmitype/StillImage" />
      </cc:Work>
    </rdf:RDF>
  </metadata>
  <g
     transform="matrix(0.55,0,0,0.3333336,-1.2000011,7.33333)"
     id="g2036-4"
     style="display:inline">
    <g
       transform="matrix(1.052632,0,0,1.285713,-1.263158,-13.42854)"
       id="g3712-8"
       style="opacity:0.15">
      <rect
         width="5"
         height="7"
         x="38"
         y="40"
         id="rect2801-6"
         style="fill:url(#radialGradient3082-6);fill-opacity:1;stroke:none" />
      <rect
         width="5"
         height="7"
         x="-10"
         y="-47"
         transform="scale(-1,-1)"
         id="rect3696-20"
         style="fill:url(#radialGradient3084-4);fill-opacity:1;stroke:none" />
      <rect
         width="28"
         height="7.0000005"
         x="10"
         y="40"
         id="rect3700-5"
         style="fill:url(#linearGradient3086-8);fill-opacity:1;stroke:none" />
    </g>
  </g>
  <rect
     transform="scale(1,-1)"
     width="18"
     height="18"
     rx="1.5"
     ry="1.5"
     x="3"
     y="-21"
     id="rect5505"
     style="color:#000000;display:inline;overflow:visible;visibility:visible;fill:url(#linearGradient903);fill-opacity:1;fill-rule:nonzero;stroke:none;stroke-width:1;marker:none;enable-background:accumulate" />
  <rect
     width="19.000002"
     height="19.000002"
     rx="2"
     ry="2"
     x="2.4999981"
     y="2.5000257"
     id="rect5505-21-8-1"
     style="color:#000000;display:inline;overflow:visible;visibility:visible;opacity:0.3;vector-effect:none;fill:none;fill-opacity:1;stroke:#000000;stroke-width:1;stroke-linecap:round;stroke-linejoin:round;stroke-miterlimit:4;stroke-dasharray:none;stroke-dashoffset:0;stroke-opacity:1;marker:none;enable-background:accumulate" />
  <rect
     width="17"
     height="17"
     x="3.5012455"
     y="3.4987564"
     id="rect6741-9"
     style="opacity:1;fill:none;stroke:url(#linearGradient3233);stroke-width:1;stroke-linecap:round;stroke-linejoin:round;stroke-miterlimit:4;stroke-dasharray:none;stroke-dashoffset:0;stroke-opacity:1"
     rx="1"
     ry="1" />
  <path
     id="path4192"
     d="m 15.722969,7.006028 c -0.05462,-0.01057 -0.116504,-0.0072 -0.179687,0.0098 l -5.085938,1.36523 c -0.252734,0.06784 -0.457031,0.346047 -0.457031,0.623047 v 1.603516 4.4375 a 1.5171451,2.0185373 78.171094 0 0 -1.4902347,-0.02734 1.5171451,2.0185373 78.171094 0 0 -1.4492187,1.988281 1.5171451,2.0185373 78.171094 0 0 2.4296875,0.892579 1.5171451,2.0185373 78.171094 0 0 1.5078129,-1.607422 h 0.002 v -5.453125 l 4,-1.072266 v 4.279297 a 1.5171451,2.0185373 78.171094 0 0 -1.490234,-0.02734 1.5171451,2.0185373 78.171094 0 0 -1.449219,1.988281 1.5171451,2.0185373 78.171094 0 0 2.429687,0.892579 1.5171451,2.0185373 78.171094 0 0 1.507813,-1.607422 h 0.002 V 8.996293 7.392777 c 0,-0.20775 -0.113497,-0.354994 -0.277344,-0.386719 z"
     style="color:#000000;clip-rule:nonzero;display:inline;overflow:visible;visibility:visible;isolation:auto;mix-blend-mode:normal;color-interpolation:sRGB;color-interpolation-filters:linearRGB;solid-color:#000000;solid-opacity:1;fill:url(#linearGradient4252);fill-opacity:1;fill-rule:nonzero;stroke:none;stroke-width:1.0007;stroke-linecap:butt;stroke-linejoin:miter;stroke-miterlimit:4;stroke-dasharray:none;stroke-dashoffset:0;stroke-opacity:1;marker:none;color-rendering:auto;image-rendering:auto;shape-rendering:auto;text-rendering:auto;enable-background:accumulate" />
</svg>

<?xml version="1.0" encoding="UTF-8" standalone="no"?>
<svg
   xmlns:dc="http://purl.org/dc/elements/1.1/"
   xmlns:cc="http://creativecommons.org/ns#"
   xmlns:rdf="http://www.w3.org/1999/02/22-rdf-syntax-ns#"
   xmlns:svg="http://www.w3.org/2000/svg"
   xmlns="http://www.w3.org/2000/svg"
   xmlns:xlink="http://www.w3.org/1999/xlink"
   id="svg3828"
   height="24"
   width="24"
   version="1.1">
  <defs
     id="defs3830">
    <linearGradient
       id="linearGradient3977">
      <stop
         offset="0"
         style="stop-color:#ffffff;stop-opacity:1"
         id="stop3979" />
      <stop
         offset="0"
         style="stop-color:#ffffff;stop-opacity:0.23529412"
         id="stop3981" />
      <stop
         offset="1"
         style="stop-color:#ffffff;stop-opacity:0.15686275"
         id="stop3983" />
      <stop
         offset="1"
         style="stop-color:#ffffff;stop-opacity:0.39215687"
         id="stop3985" />
    </linearGradient>
    <linearGradient
       id="linearGradient3600-4">
      <stop
         offset="0"
         style="stop-color:#f4f4f4;stop-opacity:1"
         id="stop3602-7" />
      <stop
         offset="1"
         style="stop-color:#dbdbdb;stop-opacity:1"
         id="stop3604-6" />
    </linearGradient>
    <linearGradient
       id="linearGradient5060">
      <stop
         offset="0"
         style="stop-color:#000000;stop-opacity:1"
         id="stop5062" />
      <stop
         offset="1"
         style="stop-color:#000000;stop-opacity:0"
         id="stop5064" />
    </linearGradient>
    <linearGradient
       id="linearGradient5048">
      <stop
         offset="0"
         style="stop-color:#000000;stop-opacity:0"
         id="stop5050" />
      <stop
         offset="0.5"
         style="stop-color:#000000;stop-opacity:1"
         id="stop5056" />
      <stop
         offset="1"
         style="stop-color:#000000;stop-opacity:0"
         id="stop5052" />
    </linearGradient>
    <linearGradient
       gradientTransform="matrix(0.40540511,0,0,0.51351351,2.2696871,-0.3243195)"
       gradientUnits="userSpaceOnUse"
       xlink:href="#linearGradient3977"
       id="linearGradient3013"
       y2="41.526306"
       x2="23.99999"
       y1="6.4736748"
       x1="23.99999" />
    <linearGradient
       gradientTransform="matrix(0.45714178,0,0,0.43456667,1.0285964,0.90372283)"
       gradientUnits="userSpaceOnUse"
       xlink:href="#linearGradient3600-4"
       id="linearGradient3016"
       y2="47.013336"
       x2="25.132275"
       y1="0.98520643"
       x1="25.132275" />
    <radialGradient
       gradientTransform="matrix(0.01204859,0,0,0.0082353,13.238793,18.980564)"
       gradientUnits="userSpaceOnUse"
       xlink:href="#linearGradient5060"
       id="radialGradient3021"
       fy="486.64789"
       fx="605.71429"
       r="117.14286"
       cy="486.64789"
       cx="605.71429" />
    <radialGradient
       gradientTransform="matrix(-0.01204859,0,0,0.0082353,10.761206,18.980564)"
       gradientUnits="userSpaceOnUse"
       xlink:href="#linearGradient5060"
       id="radialGradient3024"
       fy="486.64789"
       fx="605.71429"
       r="117.14286"
       cy="486.64789"
       cx="605.71429" />
    <linearGradient
       gradientTransform="matrix(0.0352071,0,0,0.0082353,-0.724852,18.980547)"
       gradientUnits="userSpaceOnUse"
       xlink:href="#linearGradient5048"
       id="linearGradient3027"
       y2="609.50507"
       x2="302.85715"
       y1="366.64789"
       x1="302.85715" />
    <linearGradient
       id="linearGradient4417">
      <stop
         style="stop-color:#ffa154;stop-opacity:1"
         offset="0"
         id="stop4419" />
      <stop
         style="stop-color:#cc3b02;stop-opacity:1"
         offset="1"
         id="stop4421" />
    </linearGradient>
    <linearGradient
       y2="84.235909"
       x2="17.238106"
       y1="25.439518"
       x1="36.948124"
       gradientTransform="matrix(0.33469959,-0.0946529,0.11219966,0.32923278,-5.7488173,-3.4071265)"
       gradientUnits="userSpaceOnUse"
       id="linearGradient4252"
       xlink:href="#linearGradient4417" />
  </defs>
  <metadata
     id="metadata3833">
    <rdf:RDF>
      <cc:Work
         rdf:about="">
        <dc:format>image/svg+xml</dc:format>
        <dc:type
           rdf:resource="http://purl.org/dc/dcmitype/StillImage" />
        <dc:title></dc:title>
      </cc:Work>
    </rdf:RDF>
  </metadata>
  <rect
     style="opacity:0.15;fill:url(#linearGradient3027);fill-opacity:1;fill-rule:nonzero;stroke:none;stroke-width:1;marker:none;visibility:visible;display:inline;overflow:visible"
     id="rect2879"
     y="22"
     x="3.5000007"
     height="2"
     width="16.999998" />
  <path
     style="opacity:0.15;fill:url(#radialGradient3024);fill-opacity:1;fill-rule:nonzero;stroke:none;stroke-width:1;marker:none;visibility:visible;display:inline;overflow:visible"
     id="path2881"
     d="m 3.4999999,22.000085 c 0,0 0,1.999891 0,1.999891 C 2.8795275,24.003776 2,23.551901 2,22.999901 2,22.447902 2.6924,22.000085 3.4999999,22.000085 z" />
  <path
     style="opacity:0.15;fill:url(#radialGradient3021);fill-opacity:1;fill-rule:nonzero;stroke:none;stroke-width:1;marker:none;visibility:visible;display:inline;overflow:visible"
     id="path2883"
     d="m 20.5,22.000085 c 0,0 0,1.999891 0,1.999891 0.620472,0.0038 1.5,-0.448075 1.5,-1.000075 0,-0.551999 -0.692402,-0.999816 -1.5,-0.999816 z" />
  <path
     style="display:inline;fill:url(#linearGradient3016);fill-opacity:1;stroke:none"
     id="path4160-3"
     d="m 4,2 c 3.6664118,0 15.99998,0.0013 15.99998,0.0013 L 20,22 C 20,22 9.3333337,22 4,22 4,15.33334 4,8.6666817 4,2.0000212 Z" />
  <path
     style="fill:none;stroke:url(#linearGradient3013);stroke-width:1;stroke-linecap:round;stroke-linejoin:miter;stroke-miterlimit:4;stroke-opacity:1;stroke-dasharray:none;stroke-dashoffset:0"
     id="rect6741-1"
     d="m 19.5,21.5 -15.0000004,0 0,-19 L 19.5,2.5 z" />
  <path
     style="opacity:0.3;fill:none;stroke:#000000;stroke-width:0.99992186;stroke-linecap:butt;stroke-linejoin:round;stroke-miterlimit:4;stroke-opacity:1;stroke-dasharray:none;stroke-dashoffset:0;display:inline"
     id="path4160-3-1"
     d="m 3.4999601,1.4999569 c 3.8955809,0 17.0000589,0.00136 17.0000589,0.00136 l 2.1e-5,20.9987161 c 0,0 -11.3333862,0 -17.0000799,0 0,-7.000018 0,-14.000035 0,-21.0000538 z" />
  <path
     id="path4192"
     d="M 15.722656 7.0058594 C 15.668041 6.9952844 15.606152 6.9986658 15.542969 7.015625 L 10.457031 8.3808594 C 10.204297 8.4486961 10 8.7269063 10 9.0039062 L 10 10.607422 L 10 15.044922 A 1.5171451 2.0185373 78.171094 0 0 8.5097656 15.017578 A 1.5171451 2.0185373 78.171094 0 0 7.0605469 17.005859 A 1.5171451 2.0185373 78.171094 0 0 9.4902344 17.898438 A 1.5171451 2.0185373 78.171094 0 0 10.998047 16.291016 L 11 16.291016 L 11 10.837891 L 15 9.765625 L 15 14.044922 A 1.5171451 2.0185373 78.171094 0 0 13.509766 14.017578 A 1.5171451 2.0185373 78.171094 0 0 12.060547 16.005859 A 1.5171451 2.0185373 78.171094 0 0 14.490234 16.898438 A 1.5171451 2.0185373 78.171094 0 0 15.998047 15.291016 L 16 15.291016 L 16 8.9960938 L 16 7.3925781 C 16 7.1848281 15.886503 7.0375842 15.722656 7.0058594 z "
     style="color:#000000;clip-rule:nonzero;display:inline;overflow:visible;visibility:visible;opacity:1;isolation:auto;mix-blend-mode:normal;color-interpolation:sRGB;color-interpolation-filters:linearRGB;solid-color:#000000;solid-opacity:1;fill:url(#linearGradient4252);fill-opacity:1;fill-rule:nonzero;stroke:none;stroke-width:1.00069865;stroke-linecap:butt;stroke-linejoin:miter;stroke-miterlimit:4;stroke-dasharray:none;stroke-dashoffset:0;stroke-opacity:1;marker:none;color-rendering:auto;image-rendering:auto;shape-rendering:auto;text-rendering:auto;enable-background:accumulate;filter-blend-mode:normal;filter-gaussianBlur-deviation:0" />
</svg>
